!!!COM: Palestrina, Giovanni Perluigi da
!!!OPR: Missa Jesu Nostra Redemptio
!!!OMD: Benedictus
!!!OTL: First Section
**kern	**kern	**kern
*Itenor	*Icalto	*Icant
!Tenor	!Altus	!Cantus
*clefGv2	*clefG2	*clefG2
*k[]	*k[]	*k[]
*E:phr	*E:phr	*E:phr
*M4/2	*M4/2	*M4/2
=1	=1	=1
0r	1e	0r
.	2d	.
.	2e	.
=2	=2	=2
1A	4c	0r
.	4d	.
.	4e	.
.	4f	.
2G	2g	.
2A	2e	.
=3	=3	=3
4F	1f	1a
4G	.	.
4A	.	.
4B	.	.
2c	1e	2g
2A	.	2a
=4	=4	=4
1d	2r	4f
.	.	4g
.	2f	4a
.	.	4b
2c	2e	2cc
2F	2f	2a
=5	=5	=5
1B-	4d	1dd
.	4e	.
.	4f	.
.	4g	.
1A	2a	1cc
.	[2A	.
=6	=6	=6
1F	4A]	2r
.	4B	.
.	4c	2a
.	4d	.
2E	2e	2g
2F	2c	2a
=7	=7	=7
4D	1d	4f
4E	.	4g
4F	.	4a
4G	.	4b
2A	2c	2cc
2F	2d	[2a
=8	=8	=8
1G	2.B	4a]
.	.	4g
.	.	1g
.	8A	.
.	8G	.
1D	1A	.
.	.	2f#
=9	=9	=9
2G	2G	0g
2B	2d	.
2.c	2.e	.
4B	4d	.
=10	=10	=10
2G	2B	0r
1A	4c	.
.	4d	.
.	4e	.
.	4f	.
4G	[2g	.
4F	.	.
=11	=11	=11
4E	4g]	2r
4F	4f	.
4G	2e	2g
4E	.	.
2.F	2d	2.a
.	[2c	.
4E	.	4g
=12	=12	=12
4C	4c]	2e
4D	4B	.
1E	4G	1g
.	4A	.
.	2B	.
4D	[2c	4f
4C	.	4e
=13	=13	=13
2D	2c]	2f
2D	2B	2f
[1C	1c	2e
.	.	4c
.	.	4d
=14	=14	=14
1C]	2r	4e
.	.	4f
.	2c	4g
.	.	4e
1r	2.d	4f
.	.	4g
.	.	[2a
.	4c	.
=15	=15	=15
0r	2A	2a]
.	4c	4g
.	4d	4f
.	4e	4g
.	4f	4a
.	4g	4b
.	4e	4cc
=16	=16	=16
1r	4f	4dd
.	4e	4cc
.	4e	1cc
.	8d	.
.	8c	.
1G	2d	.
.	2d	2b
=17	=17	=17
2.A	[0c	1cc
4G	.	.
2E	.	2g
4F	.	[2a
4G	.	.
=18	=18	=18
4A	1c]	4a]
4B	.	4g
4c	.	2e
4A	.	.
4B	1r	2g
4c	.	.
[2d	.	4f
.	.	4e
=19	=19	=19
2d]	0r	2f
1c	.	2e
.	.	1d
2B	.	.
=20	=20	=20
2c	1e	1g
2c	.	.
2.F	2.f	2.a
4G	4e	4g
=21	=21	=21
2A	2c	2e
4D	1d	4f
4E	.	4g
4F	.	4a
4G	.	4b
[2A	4c	[2cc
.	4B	.
=22	=22	=22
4A]	4A	4cc]
4G	4B	4b
4A	4c	2a
4B	4d	.
1c	4e	1g
.	4f	.
.	4g	.
.	4e	.
=23	=23	=23
1.F	1.f	1.a
2c	2e	2g
=24	=24	=24
[0c	[0e	[0g
=25	=25	=25
0c]	0e]	0g]
*-	*-	*-
!!!CDT: 1525/^1526/-1594/2/2
!!!OCY: Italia
!!!AGN: Mass (Paraphrase)
!!!AST: renaissance, vocal
!!!ASW: Hymn
!!!PWK: Masses, Book 4
!!!RNB: Cadence finals: C,A
!!!YOR: Le Opere Complete, v. 10, p. 38
!!!YOO: Rome, Italy: Fratelli Scalera
!!!END: 1992//
!!!EED: John Miller
!!!YEC: Copyright 2000, John Miller
!!!YEN: United States of America
!!!YEM: Rights to all derivative electronic formats reserved.
!!!YEM: Refer to licensing agreement for further details.
!!!YEM: This file must be accompanied by the licensing agreement.
!!!YEM: A copy of the licensing agreement may be found at http://www.music-cog.ohio-state.edu/HumdrumDatabases/Palestrina/license.txt
!!!EMD: converted to Humdrum by Bret Aarden
